
//El buffer es un espacio en memoria que reserva S.Collider para guardar archivos de audio
b = Buffer.read(s, C:\Users\USURIO\Music\para_toda_la_vida);

SynthDef(\help_PlayBuf, {
	arg buf = 0;
	var out;
})